themes/default/assets/images/icons/micro/micro-icon-pitchdecks.svg

<?xml version="1.0" encoding="UTF-8"?>
<svg width="32px" height="32px" viewBox="0 0 32 32" version="1.1" xmlns="http://www.w3.org/2000/svg" xmlns:xlink="http://www.w3.org/1999/xlink">
    <!-- Generator: sketchtool 59 (101010) - https://sketch.com -->
    <title>CB0D6117-9DC3-4E32-99EB-170149CDB518</title>
    <desc>Created with sketchtool.</desc>
    <g id="Page-1" stroke="none" stroke-width="1" fill="none" fill-rule="evenodd">
        <g id="Icons" transform="translate(-134.000000, -1329.000000)" fill-rule="nonzero">
            <g id="micro-icon-pitchdecks" transform="translate(134.000000, 1329.000000)">
                <path d="M22.9818182,5.6630303 L15.5151515,5.6630303 C15.2830371,5.6630303 15.0685546,5.53919877 14.9524974,5.33818182 C14.8364402,5.13716488 14.8364402,4.88950179 14.9524974,4.68848484 C15.0685546,4.4874679 15.2830371,4.36363636 15.5151515,4.36363636 L22.9818182,4.36363636 C23.3406359,4.36363636 23.6315152,4.6545156 23.6315152,5.01333333 C23.6315152,5.37215106 23.3406359,5.6630303 22.9818182,5.6630303 L22.9818182,5.6630303 Z" id="Path" fill="#2969F6"></path>
                <path d="M22.9818182,9.38666667 L15.5151515,9.38666667 C15.1842974,9.34632188 14.9355737,9.06542607 14.9355737,8.73212121 C14.9355737,8.39881635 15.1842974,8.11792054 15.5151515,8.07757576 L22.9818182,8.07757576 C23.3126723,8.11792054 23.561396,8.39881635 23.561396,8.73212121 C23.561396,9.06542607 23.3126723,9.34632188 22.9818182,9.38666667 L22.9818182,9.38666667 Z" id="Path" fill="#2969F6"></path>
                <path d="M22.9818182,13.0812121 L15.5151515,13.0812121 C15.1563338,13.0812121 14.8654545,12.7903329 14.8654545,12.4315152 C14.8654545,12.0726974 15.1563338,11.7818182 15.5151515,11.7818182 L22.9818182,11.7818182 C23.3406359,11.7818182 23.6315152,12.0726974 23.6315152,12.4315152 C23.6315152,12.7903329 23.3406359,13.0812121 22.9818182,13.0812121 Z" id="Path" fill="#2969F6"></path>
                <path d="M22.9818182,16.7951515 L15.5151515,16.7951515 C15.2041906,16.7408155 14.9772855,16.470824 14.9772855,16.1551515 C14.9772855,15.8394791 15.2041906,15.5694875 15.5151515,15.5151515 L22.9818182,15.5151515 C23.3406359,15.5151515 23.6315152,15.8060308 23.6315152,16.1648485 C23.6315152,16.5236662 23.3406359,16.8145455 22.9818182,16.8145455 L22.9818182,16.7951515 Z" id="Path" fill="#2969F6"></path>
                <path d="M29.7309091,9.34787879 L29.7309091,7.19515152 C29.7228917,5.86509459 28.6830186,4.77004462 27.3551515,4.69333333 L27.3551515,2.55030303 C27.3655433,1.87751282 27.1055328,1.22868908 26.6334013,0.749265978 C26.1612698,0.269842879 25.5165068,-0.000172249477 24.8436364,-0.000172249477 L3.51030303,-0.000172249477 C2.83240287,-0.00793423793 2.18008773,0.258526783 1.70162107,0.738819652 C1.22315441,1.21911252 0.959180322,1.87243801 0.969394351,2.55030303 L0.969394351,19.2678788 C0.977714391,20.5979357 2.01758743,21.6929857 3.34545455,21.769697 L3.34545455,23.9612121 C3.34985586,25.2494874 4.33184806,26.3238036 5.61454545,26.4436364 L5.61454545,28.5575758 C5.63573562,29.9294762 6.75399658,31.0304786 8.12606061,31.0304786 L29.4593939,31.0304786 C30.842768,31.0464913 31.9787284,29.940881 32,28.5575758 L32,11.84 C31.9960609,10.5497646 31.0151263,9.47241345 29.7309091,9.34787879 Z M2.28848485,19.2678788 L2.28848485,2.55030303 C2.28848485,1.89157795 2.82248704,1.35757576 3.48121212,1.35757576 L24.8145455,1.35757576 C25.4732705,1.35757576 26.0072727,1.89157795 26.0072727,2.55030303 L26.0072727,19.2678788 C26.0072727,19.9281908 25.474836,20.4649779 24.8145455,20.470303 L3.48121212,20.470303 C2.82092157,20.4649779 2.28848485,19.9281908 2.28848485,19.2678788 Z M4.66424225,23.9612121 L4.66424225,21.7793939 L24.8436364,21.7793939 C26.2307079,21.7793939 27.3551515,20.6549503 27.3551515,19.2678788 L27.3551515,6.02181818 C27.9530221,6.09028455 28.4062437,6.59340213 28.4121212,7.19515152 L28.4121212,23.9612121 C28.4121212,24.6199372 27.878119,25.1539394 27.2193939,25.1539394 L5.81818182,25.1539394 C5.17465224,25.1330006 4.66390187,24.6050822 4.66424225,23.9612121 Z M30.6812121,28.5575758 C30.6812121,29.2163008 30.1472099,29.750303 29.4884848,29.750303 L8.15515152,29.750303 C7.49642643,29.750303 6.96242424,29.2163008 6.96242424,28.5575758 L6.96242424,26.4727273 L27.2193939,26.4727273 C28.6064655,26.4727273 29.7309091,25.3482836 29.7309091,23.9612121 L29.7309091,10.6666667 C30.2870243,10.7724577 30.6921697,11.2545807 30.7006061,11.8206061 L30.6812121,28.5575758 Z" id="Shape" fill="#A8C5DD"></path>
                <path d="M13.129697,13.7793939 L4.68363636,13.7793939 L4.68363636,4.35393939 L13.129697,4.35393939 L13.129697,13.7793939 Z M6.00242424,12.4606061 L11.8206061,12.4606061 L11.8206061,5.67272727 L6.00242424,5.67272727 L6.00242424,12.4606061 Z" id="Shape" fill="#032663"></path>
            </g>
        </g>
    </g>
</svg>

<svg width="32" height="32" xmlns="http://www.w3.org/2000/svg"><g fill-rule="nonzero" fill="none"><path d="M22.982 5.663h-7.467a.65.65 0 110-1.3h7.467a.65.65 0 010 1.3zM22.982 9.387h-7.467a.66.66 0 010-1.31h7.467a.66.66 0 010 1.31zM22.982 13.081h-7.467a.65.65 0 110-1.3h7.467a.65.65 0 110 1.3zM22.982 16.795h-7.467a.65.65 0 010-1.28h7.467a.65.65 0 010 1.3v-.02z" fill="#2969F6"/><path d="M29.73 9.348V7.195a2.521 2.521 0 00-2.375-2.502V2.55A2.512 2.512 0 0024.844 0H3.51A2.512 2.512 0 00.97 2.55v16.718a2.522 2.522 0 002.375 2.502v2.191a2.502 2.502 0 002.27 2.483v2.114a2.512 2.512 0 002.511 2.472H29.46A2.512 2.512 0 0032 28.558V11.84a2.512 2.512 0 00-2.27-2.492zm-27.442 9.92V2.55c0-.658.534-1.192 1.193-1.192h21.334c.658 0 1.192.534 1.192 1.192v16.718c0 .66-.532 1.197-1.192 1.202H3.48a1.202 1.202 0 01-1.193-1.202zm2.376 4.693V21.78h20.18a2.512 2.512 0 002.511-2.511V6.022a1.193 1.193 0 011.057 1.173v16.766c0 .659-.534 1.193-1.193 1.193H5.82a1.193 1.193 0 01-1.155-1.193zm26.017 4.597c0 .658-.534 1.192-1.193 1.192H8.155a1.193 1.193 0 01-1.193-1.192v-2.085H27.22a2.512 2.512 0 002.512-2.512V10.667c.556.105.961.588.97 1.154l-.02 16.737z" fill="#A8C5DD"/><path d="M13.13 13.78H4.684V4.353h8.446v9.425zm-7.128-1.32h5.819V5.674H6.002v6.788z" fill="#032663"/></g></svg>
